X:310
T: ALS MICH DIE MAMA HAENSCHEN KUESSEN SAH
N: B0367
O: Europa, Mitteleuropa, Deutschland
R: Scherz - Lied, Liebe, Moral
M: 2/4
L: 1/16
K: G
 | G2B2A2c2 | B3cd2z2 |
G2B2A2c2 | B3cd2z2 |
B2ged2^c2 | ^c4d4 |
d2=cBe2d2 | c3de2z2 |
c2BAd2c2 | B3cd2z2 |
B2dGB2A2 | G4z4

@@@ Tune index: 2113
